X:88
T:Dan O'Keefe's
R:slide
Z:id:hn-slide-88
M:6/8
L:1/8
K:Edor
B2e e2f | e2d B2A | B2d dBA | B2d dBA |
B2e e2f | e2d B2A | def a2f |1 e3 e2d :|2 e3 efa ||
|: b3 b2a | b2a f2e | def a2f | def a3 |
b3 b2a | b2a f2e | def a2f |1 e3 efa :|2 e3 e2d || 

